X: 1
T: The Connaughtmans Rambles   (jig)
O: trad. Ireland
R: jig
S: Fiddle Hell Online 2021-11-04
Z: 2021 John Chambers <jc:trillian.mit.edu>
M: 6/8
L: 1/8
K: D
[| vFAA dAA |  BAA   dAA   |  FAA  (udfe) |  dBB  (uB2A) |\
|  FAA  dAA |  BAA  (udef) | (gfe) (udfe) |  dBB  (uB2A) |]
[| faa  fbb | (afe) (udef) |  faa    fbb  | (afe) (uf2e) |\
|  faa  fbb | (afe) (udef) | (gfe) (udfe) |  dBB  (uB2A) |]

%%sep 1 1 500
%%sep 1 1 500

